icons/fill-new-other-toilet-paper.svg

<svg xmlns="http://www.w3.org/2000/svg" width="32px" height="32px" viewBox="0 0 32 32" version="1.1">
    <title>fill-new-other-toilet-paper</title>
    <g id="fill-new-other-toilet-paper" stroke-width="1" fill-rule="evenodd">
        <path d="M19.3452662,1.99842697 C17.279711,4.01143873 16,7.33688916 16,11 L16,29 C16,29.5522847 15.5522847,30 15,30 L3,30 C2.44771525,30 2,29.5522847 2,29 L2,11 C2,5 6,2 9,2 L19.3452662,1.99842697 Z M24,2 C27.3137085,2 30,6.02943725 30,11 C30,15.9705627 27.3137085,20 24,20 C20.6862915,20 18,15.9705627 18,11 C18,6.02943725 20.6862915,2 24,2 Z M24,8 C22.8954305,8 22,9.34314575 22,11 C22,12.6568542 22.8954305,14 24,14 C25.1045695,14 26,12.6568542 26,11 C26,9.34314575 25.1045695,8 24,8 Z" id="&#24418;&#29366;" />
    </g>
</svg>

<svg xmlns="http://www.w3.org/2000/svg" viewBox="0 0 32 32"><path fill="currentColor" d="M19.345 1.998C17.28 4.011 16 7.337 16 11v18a1 1 0 0 1-1 1H3a1 1 0 0 1-1-1V11c0-6 4-9 7-9zM24 2c3.314 0 6 4.03 6 9s-2.686 9-6 9-6-4.03-6-9 2.686-9 6-9m0 6c-1.105 0-2 1.343-2 3s.895 3 2 3 2-1.343 2-3-.895-3-2-3"/></svg>
